X:6220
T:Sporting Paddy
O:england
M:4/4
L:1/8
C:Trad
R:Reel
K:G
EAAB GABG | EAAB G2 ED | EA A2 GABd | edge dBAG | EAAG GABG | EAAB G2 ED
| EA A2 GABd | edge d2 :|
|: ef | ge e2 gede | ge e2 a2 ba | ge e2 ge d2 | efge d2 ef | ge e2 gede
| ge e2 a2 ga | bgab gabg | efge dBAG :|


